; generated by PrusaSlicer 2.3.0-rc2+win64 on 2020-12-26 at 10:48:55 UTC

; 

; external perimeters extrusion width = 0.45mm
; perimeters extrusion width = 0.45mm
; infill extrusion width = 0.45mm
; solid infill extrusion width = 0.45mm
; top infill extrusion width = 0.40mm
; first layer extrusion width = 0.42mm

M201 X9000 Y9000 Z500 E10000 ; sets maximum accelerations, mm/sec^2
M203 X500 Y500 Z12 E120 ; sets maximum feedrates, mm/sec
M204 P1500 R1500 T1500 ; sets acceleration (P, T) and retract acceleration (R), mm/sec^2
M205 X10.00 Y10.00 Z0.20 E2.50 ; sets the jerk limits, mm/sec
M205 S0 T0 ; sets the minimum extruding and travel feed rate, mm/sec
M107
M190 S60 ; set bed temperature and wait for it to be reached
M104 S210 ; set temperature
;TYPE:Custom
G28 ; home all axes
G1 Z5 F5000 ; lift nozzle
M109 S210 ; set temperature and wait for it to be reached
G21 ; set units to millimeters
G90 ; use absolute coordinates
M82 ; use absolute distances for extrusion
G92 E0
; Filament gcode
;LAYER_CHANGE
;Z:0.25
;HEIGHT:0.25
G1 Z0.250 F7800.000
G1 E-4.00000 F2400.000
G92 E0
G1 X103.347 Y102.326 F7800.000
G1 E4.00000 F2400.000
;TYPE:Skirt
;WIDTH:0.42
G1 F1800.000
G1 X104.715 Y101.137 E4.07313
G1 X106.204 Y100.238 E4.14333
G1 X107.797 Y99.605 E4.21248
G1 X109.631 Y99.225 E4.28804
G1 X110.839 Y99.148 E4.33688
G1 X137.265 Y99.148 E5.40320
G1 X138.918 Y99.280 E5.47010
G1 X140.589 Y99.692 E5.53954
G1 X142.116 Y100.343 E5.60654
G1 X143.696 Y101.366 E5.68247
G1 X144.584 Y102.137 E5.72994
G1 X145.353 Y102.990 E5.77626
G1 X146.303 Y104.367 E5.84379
G1 X147.086 Y106.051 E5.91870
G1 X147.500 Y107.576 E5.98247
G1 X147.687 Y109.481 E6.05970
G1 X147.687 Y127.539 E6.78837
G1 X147.605 Y128.777 E6.83843
G1 X147.222 Y130.571 E6.91244
G1 X146.623 Y132.072 E6.97765
G1 X145.752 Y133.528 E7.04612
G1 X144.777 Y134.695 E7.10747
G1 X143.317 Y135.952 E7.18522
G1 X141.604 Y136.932 E7.26484
G1 X140.459 Y137.381 E7.31449
G1 X139.267 Y137.682 E7.36407
G1 X137.309 Y137.881 E7.44351
G1 X110.838 Y137.881 E8.51159
G1 X109.681 Y137.809 E8.55839
G1 X107.856 Y137.441 E8.63352
G1 X106.332 Y136.853 E8.69941
G1 X104.852 Y135.989 E8.76855
G1 X103.638 Y134.994 E8.83190
G1 X102.393 Y133.569 E8.90826
G1 X101.399 Y131.864 E8.98790
G1 X100.948 Y130.743 E9.03665
G1 X100.636 Y129.544 E9.08664
G1 X100.429 Y127.573 E9.16660
G1 X100.429 Y109.483 E9.89653
G1 X100.521 Y108.159 E9.95009
G1 X100.906 Y106.418 E10.02204
G1 X101.514 Y104.913 E10.08754
G1 X102.376 Y103.483 E10.15491
G1 X103.309 Y102.372 E10.21344
G1 E6.21344 F2400.000
G92 E0
G1 X104.774 Y105.095 F7800.000
G1 E4.00000 F2400.000
G1 F1800.000
G1 X105.654 Y104.100 E4.05357
G1 X106.558 Y103.368 E4.10051
G1 X107.431 Y102.852 E4.14144
G1 X108.379 Y102.449 E4.18301
G1 X109.509 Y102.155 E4.23010
G1 X110.637 Y102.041 E4.27586
G1 X137.477 Y102.041 E5.35886
G1 X138.605 Y102.155 E5.40462
G1 X139.751 Y102.455 E5.45243
G1 X140.824 Y102.924 E5.49967
G1 X141.671 Y103.448 E5.53987
G1 X142.442 Y104.082 E5.58014
G1 X143.276 Y105.006 E5.63036
G1 X143.939 Y106.043 E5.68002
G1 X144.430 Y107.200 E5.73076
G1 X144.718 Y108.412 E5.78101
G1 X144.801 Y109.452 E5.82310
G1 X144.794 Y127.744 E6.56120
G1 X144.696 Y128.755 E6.60219
G1 X144.464 Y129.725 E6.64242
G1 X144.013 Y130.842 E6.69105
G1 X143.341 Y131.937 E6.74287
G1 X142.484 Y132.908 E6.79512
G1 X141.680 Y133.575 E6.83728
G1 X140.812 Y134.112 E6.87846
G1 X139.747 Y134.576 E6.92534
G1 X138.608 Y134.874 E6.97287
G1 X137.463 Y134.989 E7.01930
G1 X110.785 Y134.995 E8.09575
G1 X109.498 Y134.871 E8.14791
G1 X108.537 Y134.632 E8.18787
G1 X107.595 Y134.259 E8.22875
G1 X106.472 Y133.600 E8.28128
G1 X105.462 Y132.741 E8.33479
G1 X104.796 Y131.966 E8.37601
G1 X104.231 Y131.086 E8.41820
G1 X103.751 Y130.020 E8.46542
G1 X103.442 Y128.877 E8.51318
G1 X103.323 Y127.759 E8.55853
G1 X103.316 Y109.434 E9.29797
G1 X103.403 Y108.375 E9.34085
G1 X103.639 Y107.343 E9.38354
G1 X104.093 Y106.209 E9.43285
G1 X104.743 Y105.146 E9.48313
G1 X105.055 Y105.338 F7800.000
G1 F1800.000
G1 X105.918 Y104.355 E9.53589
G1 X106.756 Y103.677 E9.57940
G1 X107.607 Y103.173 E9.61928
G1 X108.509 Y102.792 E9.65882
G1 X109.586 Y102.513 E9.70372
G1 X110.664 Y102.406 E9.74741
G1 X137.450 Y102.406 E10.82823
G1 X138.527 Y102.513 E10.87191
G1 X139.619 Y102.797 E10.91742
G1 X140.643 Y103.242 E10.96248
G1 X141.468 Y103.753 E11.00163
G1 X142.199 Y104.355 E11.03985
G1 X142.994 Y105.239 E11.08782
G1 X143.621 Y106.226 E11.13501
G1 X144.087 Y107.328 E11.18329
G1 X144.358 Y108.482 E11.23111
G1 X144.435 Y109.459 E11.27064
G1 X144.428 Y127.718 E12.00743
G1 X144.337 Y128.683 E12.04651
G1 X144.111 Y129.626 E12.08565
G1 X143.679 Y130.690 E12.13198
G1 X143.038 Y131.731 E12.18133
G1 X142.239 Y132.635 E12.23000
G1 X141.476 Y133.270 E12.27005
G1 X140.631 Y133.794 E12.31017
G1 X139.615 Y134.234 E12.35486
G1 X138.530 Y134.516 E12.40009
G1 X137.436 Y134.623 E12.44444
G1 X110.794 Y134.629 E13.51946
G1 X109.574 Y134.512 E13.56892
G1 X108.638 Y134.279 E13.60783
G1 X107.744 Y133.924 E13.64664
G1 X106.672 Y133.293 E13.69684
G1 X105.731 Y132.491 E13.74671
G1 X105.083 Y131.737 E13.78683
G1 X104.547 Y130.901 E13.82691
G1 X104.091 Y129.883 E13.87191
G1 X103.799 Y128.796 E13.91732
G1 X103.688 Y127.731 E13.96053
G1 X103.682 Y109.442 E14.69852
G1 X103.767 Y108.419 E14.73994
G1 X103.993 Y107.440 E14.78047
G1 X104.427 Y106.360 E14.82743
G1 X105.023 Y105.389 E14.87343
G1 X105.335 Y105.581 F7800.000
G1 F1800.000
G1 X105.381 Y105.507 E14.87696
G1 X106.160 Y104.630 E14.92429
G1 X106.955 Y103.985 E14.96559
G1 X107.761 Y103.506 E15.00342
G1 X108.639 Y103.135 E15.04189
G1 X109.664 Y102.872 E15.08457
G1 X110.691 Y102.772 E15.12620
G1 X137.423 Y102.772 E16.20489
G1 X138.450 Y102.871 E16.24650
G1 X139.486 Y103.139 E16.28969
G1 X140.462 Y103.561 E16.33258
G1 X141.244 Y104.044 E16.36968
G1 X141.955 Y104.629 E16.40683
G1 X142.710 Y105.472 E16.45250
G1 X143.303 Y106.409 E16.49723
G1 X143.743 Y107.456 E16.54304
G1 X143.998 Y108.551 E16.58843
G1 X144.068 Y109.465 E16.62544
G1 X144.062 Y127.692 E17.36090
G1 X143.973 Y128.635 E17.39910
G1 X143.758 Y129.526 E17.43610
G1 X143.346 Y130.537 E17.48017
G1 X142.752 Y131.501 E17.52583
G1 X141.994 Y132.363 E17.57215
G1 X141.252 Y132.980 E17.61109
G1 X140.450 Y133.475 E17.64911
G1 X139.483 Y133.892 E17.69161
G1 X138.452 Y134.157 E17.73455
G1 X137.410 Y134.258 E17.77682
G1 X110.802 Y134.262 E18.85044
G1 X109.648 Y134.154 E18.89722
G1 X108.762 Y133.934 E18.93407
G1 X107.893 Y133.589 E18.97180
G1 X106.897 Y133.003 E19.01841
G1 X105.999 Y132.241 E19.06593
G1 X105.384 Y131.529 E19.10390
G1 X104.863 Y130.715 E19.14288
G1 X104.432 Y129.748 E19.18562
G1 X104.157 Y128.716 E19.22868
G1 X104.054 Y127.703 E19.26978
G1 X104.048 Y109.449 E20.00635
G1 X104.127 Y108.488 E20.04526
G1 X104.346 Y107.536 E20.08466
G1 X104.760 Y106.512 E20.12924
G1 X105.303 Y105.632 E20.17096
G1 X105.613 Y105.823 F7800.000
G1 F1800.000
G1 X105.666 Y105.738 E20.17502
G1 X106.404 Y104.904 E20.21993
G1 X107.154 Y104.293 E20.25898
G1 X107.937 Y103.828 E20.29573
G1 X108.768 Y103.478 E20.33212
G1 X109.740 Y103.230 E20.37260
G1 X110.716 Y103.137 E20.41217
G1 X137.398 Y103.137 E21.48877
G1 X138.373 Y103.230 E21.52831
G1 X139.355 Y103.481 E21.56920
G1 X140.281 Y103.880 E21.60989
G1 X141.041 Y104.349 E21.64592
G1 X141.710 Y104.903 E21.68097
G1 X142.427 Y105.704 E21.72436
G1 X142.985 Y106.591 E21.76662
G1 X143.399 Y107.582 E21.80997
G1 X143.638 Y108.619 E21.85293
G1 X143.702 Y109.472 E21.88743
G1 X143.697 Y127.667 E22.62161
G1 X143.614 Y128.562 E22.65787
G1 X143.406 Y129.427 E22.69376
G1 X143.013 Y130.384 E22.73551
G1 X142.449 Y131.295 E22.77874
G1 X141.748 Y132.091 E22.82152
G1 X141.048 Y132.675 E22.85832
G1 X140.269 Y133.156 E22.89525
G1 X139.352 Y133.549 E22.93553
G1 X138.376 Y133.799 E22.97618
G1 X137.384 Y133.892 E23.01638
G1 X110.811 Y133.896 E24.08863
G1 X109.723 Y133.795 E24.13272
G1 X108.862 Y133.582 E24.16849
G1 X108.042 Y133.254 E24.20413
G1 X107.097 Y132.696 E24.24842
G1 X106.267 Y131.991 E24.29234
G1 X105.670 Y131.300 E24.32919
G1 X105.180 Y130.530 E24.36602
G1 X104.773 Y129.613 E24.40651
G1 X104.515 Y128.637 E24.44722
G1 X104.419 Y127.676 E24.48619
G1 X104.415 Y109.456 E25.22137
G1 X104.491 Y108.532 E25.25882
G1 X104.700 Y107.634 E25.29602
G1 X105.094 Y106.664 E25.33824
G1 X105.581 Y105.874 E25.37570
G1 X105.892 Y106.067 F7800.000
G1 F1800.000
G1 X105.969 Y105.944 E25.38154
G1 X106.647 Y105.178 E25.42282
G1 X107.353 Y104.600 E25.45965
G1 X108.091 Y104.160 E25.49429
G1 X108.897 Y103.821 E25.52960
G1 X109.816 Y103.589 E25.56783
G1 X110.742 Y103.503 E25.60535
G1 X137.373 Y103.503 E26.67991
G1 X138.297 Y103.589 E26.71740
G1 X139.224 Y103.823 E26.75597
G1 X140.101 Y104.199 E26.79446
G1 X140.818 Y104.639 E26.82840
G1 X141.466 Y105.176 E26.86235
G1 X142.143 Y105.936 E26.90342
G1 X142.666 Y106.772 E26.94323
G1 X143.046 Y107.680 E26.98293
G1 X143.274 Y108.661 E27.02358
G1 X143.336 Y109.479 E27.05666
G1 X143.331 Y127.643 E27.78958
G1 X143.255 Y128.489 E27.82389
G1 X143.053 Y129.327 E27.85864
G1 X142.680 Y130.230 E27.89808
G1 X142.163 Y131.065 E27.93769
G1 X141.502 Y131.819 E27.97814
G1 X140.824 Y132.385 E28.01381
G1 X140.089 Y132.836 E28.04858
G1 X139.222 Y133.207 E28.08666
G1 X138.300 Y133.440 E28.12501
G1 X137.359 Y133.527 E28.16315
G1 X110.819 Y133.529 E29.23406
G1 X109.796 Y133.435 E29.27549
G1 X108.986 Y133.237 E29.30916
G1 X108.191 Y132.919 E29.34369
G1 X107.297 Y132.389 E29.38564
G1 X106.534 Y131.741 E29.42602
G1 X105.972 Y131.091 E29.46068
G1 X105.496 Y130.345 E29.49639
G1 X105.114 Y129.478 E29.53461
G1 X104.873 Y128.559 E29.57296
G1 X104.785 Y127.650 E29.60982
G1 X104.781 Y109.464 E30.34364
G1 X104.851 Y108.601 E30.37855
G1 X105.053 Y107.731 E30.41461
G1 X105.427 Y106.817 E30.45444
G1 X105.861 Y106.118 E30.48764
G1 X106.170 Y106.310 F7800.000
G1 F1800.000
G1 X106.254 Y106.175 E30.49406
G1 X106.891 Y105.452 E30.53296
G1 X107.553 Y104.908 E30.56751
G1 X108.267 Y104.482 E30.60107
G1 X109.025 Y104.165 E30.63424
G1 X109.891 Y103.948 E30.67023
G1 X110.766 Y103.869 E30.70570
G1 X137.348 Y103.868 E31.77829
G1 X138.223 Y103.947 E31.81372
G1 X139.094 Y104.166 E31.84998
G1 X139.921 Y104.519 E31.88624
G1 X140.615 Y104.945 E31.91909
G1 X141.221 Y105.449 E31.95092
G1 X141.841 Y106.144 E31.98851
G1 X142.335 Y106.929 E32.02590
G1 X142.693 Y107.779 E32.06314
G1 X142.910 Y108.703 E32.10145
G1 X142.969 Y109.486 E32.13311
G1 X142.966 Y127.618 E32.86475
G1 X142.891 Y128.443 E32.89816
G1 X142.700 Y129.226 E32.93069
G1 X142.347 Y130.076 E32.96781
G1 X141.860 Y130.859 E33.00502
G1 X141.256 Y131.547 E33.04198
G1 X140.620 Y132.080 E33.07546
G1 X139.910 Y132.517 E33.10912
G1 X139.092 Y132.864 E33.14496
G1 X138.225 Y133.081 E33.18101
G1 X137.335 Y133.161 E33.21710
G1 X110.827 Y133.163 E34.28669
G1 X109.870 Y133.076 E34.32546
G1 X109.086 Y132.884 E34.35804
G1 X108.342 Y132.585 E34.39041
G1 X107.498 Y132.082 E34.43004
G1 X106.802 Y131.490 E34.46689
G1 X106.258 Y130.862 E34.50043
G1 X105.813 Y130.161 E34.53393
G1 X105.455 Y129.345 E34.56988
G1 X105.232 Y128.482 E34.60587
G1 X105.150 Y127.624 E34.64063
G1 X105.147 Y109.471 E35.37310
G1 X105.215 Y108.645 E35.40655
G1 X105.407 Y107.829 E35.44036
G1 X105.760 Y106.971 E35.47782
G1 X106.138 Y106.361 E35.50678
G1 X106.556 Y106.382 F7800.000
G1 F1800.000
G1 X107.136 Y105.725 E35.54213
G1 X107.753 Y105.214 E35.57445
G1 X108.421 Y104.815 E35.60584
G1 X109.154 Y104.508 E35.63789
G1 X109.965 Y104.307 E35.67161
G1 X110.790 Y104.234 E35.70505
G1 X137.324 Y104.234 E36.77571
G1 X138.149 Y104.306 E36.80910
G1 X138.965 Y104.509 E36.84304
G1 X139.742 Y104.838 E36.87709
G1 X140.391 Y105.235 E36.90778
G1 X140.976 Y105.721 E36.93849
G1 X141.556 Y106.376 E36.97377
G1 X142.016 Y107.110 E37.00872
G1 X142.349 Y107.906 E37.04355
G1 X142.546 Y108.746 E37.07833
G1 X142.603 Y109.493 E37.10858
G1 X142.600 Y127.594 E37.83897
G1 X142.532 Y128.370 E37.87038
G1 X142.348 Y129.125 E37.90175
G1 X142.015 Y129.920 E37.93654
G1 X141.575 Y130.629 E37.97021
G1 X141.010 Y131.276 E38.00485
G1 X140.396 Y131.790 E38.03719
G1 X139.731 Y132.197 E38.06864
G1 X138.963 Y132.520 E38.10225
G1 X138.151 Y132.722 E38.13600
G1 X137.311 Y132.795 E38.17004
G1 X110.835 Y132.797 E39.23835
G1 X109.943 Y132.717 E39.27449
G1 X109.210 Y132.539 E39.30491
G1 X108.492 Y132.250 E39.33616
G1 X107.700 Y131.775 E39.37343
G1 X107.069 Y131.239 E39.40682
G1 X106.560 Y130.654 E39.43813
G1 X106.131 Y129.977 E39.47048
G1 X105.797 Y129.212 E39.50413
G1 X105.590 Y128.405 E39.53775
G1 X105.516 Y127.599 E39.57042
G1 X105.514 Y109.479 E40.30158
G1 X105.579 Y108.689 E40.33354
G1 X105.760 Y107.928 E40.36510
G1 X106.092 Y107.125 E40.40017
G1 X106.525 Y106.433 E40.43312
G1 X106.833 Y106.625 F7800.000
G1 F1800.000
G1 X107.382 Y105.997 E40.46677
G1 X107.954 Y105.521 E40.49680
G1 X108.597 Y105.136 E40.52706
G1 X109.281 Y104.852 E40.55692
G1 X110.038 Y104.666 E40.58837
G1 X110.813 Y104.600 E40.61978
G1 X137.301 Y104.600 E41.68858
G1 X138.076 Y104.666 E41.71994
G1 X138.836 Y104.853 E41.75155
G1 X139.563 Y105.159 E41.78338
G1 X140.167 Y105.526 E41.81189
G1 X140.731 Y105.994 E41.84147
G1 X141.271 Y106.606 E41.87441
G1 X141.697 Y107.291 E41.90693
G1 X141.996 Y108.006 E41.93820
G1 X142.181 Y108.788 E41.97066
G1 X142.237 Y109.500 E41.99946
G1 X142.234 Y127.571 E42.72864
G1 X142.173 Y128.297 E42.75803
G1 X141.996 Y129.024 E42.78822
G1 X141.684 Y129.764 E42.82064
G1 X141.272 Y130.422 E42.85195
G1 X140.763 Y131.005 E42.88317
G1 X140.193 Y131.485 E42.91326
G1 X139.552 Y131.877 E42.94357
G1 X138.835 Y132.177 E42.97491
G1 X138.078 Y132.363 E43.00636
G1 X137.288 Y132.430 E43.03837
G1 X110.843 Y132.430 E44.10544
G1 X110.016 Y132.358 E44.13894
G1 X109.310 Y132.186 E44.16824
G1 X108.643 Y131.916 E44.19727
G1 X107.902 Y131.470 E44.23221
G1 X107.336 Y130.988 E44.26218
G1 X106.862 Y130.446 E44.29126
G1 X106.448 Y129.793 E44.32244
G1 X106.139 Y129.081 E44.35375
G1 X105.949 Y128.330 E44.38501
G1 X105.881 Y127.575 E44.41560
G1 X105.880 Y109.486 E45.14549
G1 X105.939 Y108.760 E45.17487
G1 X106.112 Y108.028 E45.20525
G1 X106.425 Y107.281 E45.23792
G1 X106.802 Y106.676 E45.26667
G1 X107.112 Y106.871 F7800.000
G1 F1800.000
G1 X107.628 Y106.269 E45.29866
G1 X108.155 Y105.828 E45.32642
G1 X108.750 Y105.469 E45.35445
G1 X109.408 Y105.196 E45.38317
G1 X110.110 Y105.026 E45.41232
G1 X110.836 Y104.966 E45.44171
G1 X137.279 Y104.966 E46.50870
G1 X138.004 Y105.025 E46.53804
G1 X138.709 Y105.196 E46.56733
G1 X139.385 Y105.479 E46.59691
G1 X139.965 Y105.831 E46.62429
G1 X140.485 Y106.266 E46.65164
G1 X140.969 Y106.814 E46.68112
G1 X141.365 Y107.447 E46.71126
G1 X141.643 Y108.106 E46.74014
G1 X141.817 Y108.832 E46.77023
G1 X141.870 Y109.507 E46.79758
G1 X141.869 Y127.549 E47.52557
G1 X141.813 Y128.225 E47.55292
G1 X141.643 Y128.922 E47.58190
G1 X141.352 Y129.607 E47.61192
G1 X140.970 Y130.214 E47.64089
G1 X140.515 Y130.734 E47.66874
G1 X139.989 Y131.180 E47.69657
G1 X139.373 Y131.557 E47.72571
G1 X138.708 Y131.833 E47.75476
G1 X138.006 Y132.003 E47.78390
G1 X137.266 Y132.064 E47.81389
G1 X110.851 Y132.064 E48.87975
G1 X110.088 Y131.998 E48.91066
G1 X109.435 Y131.842 E48.93774
G1 X108.794 Y131.582 E48.96563
G1 X108.127 Y131.180 E48.99705
G1 X107.603 Y130.736 E49.02479
G1 X107.147 Y130.215 E49.05272
G1 X106.766 Y129.610 E49.08157
G1 X106.482 Y128.950 E49.11056
G1 X106.308 Y128.255 E49.13946
G1 X106.247 Y127.551 E49.16797
G1 X106.246 Y109.494 E49.89661
G1 X106.303 Y108.804 E49.92451
G1 X106.465 Y108.128 E49.95257
G1 X106.756 Y107.437 E49.98284
G1 X107.080 Y106.922 E50.00739
G1 X107.389 Y107.117 F7800.000
G1 F1800.000
G1 X107.446 Y107.028 E50.01167
G1 X107.874 Y106.540 E50.03786
G1 X108.357 Y106.134 E50.06333
G1 X108.927 Y105.790 E50.09020
G1 X109.534 Y105.540 E50.11665
G1 X110.181 Y105.385 E50.14350
G1 X110.857 Y105.331 E50.17089
G1 X137.272 Y105.332 E51.23672
G1 X137.932 Y105.385 E51.26347
G1 X138.582 Y105.540 E51.29043
G1 X139.208 Y105.800 E51.31777
G1 X139.741 Y106.122 E51.34289
G1 X140.239 Y106.538 E51.36909
G1 X140.684 Y107.044 E51.39626
G1 X141.034 Y107.604 E51.42290
G1 X141.291 Y108.208 E51.44940
G1 X141.453 Y108.875 E51.47711
G1 X141.504 Y109.514 E51.50298
G1 X141.502 Y127.541 E52.23036
G1 X141.449 Y128.180 E52.25622
G1 X141.300 Y128.794 E52.28172
